svgs/snapshot-light.svg

<svg width="400" height="400" viewBox="0 0 400 400" fill="none" xmlns="http://www.w3.org/2000/svg">
<g id="snapshot">
<g id="snapshot_2">
<path id="Shape" fill-rule="evenodd" clip-rule="evenodd" d="M372.382 78.2503H378.989C384.495 78.2503 388.9 82.6449 389 88.1381C389 93.6313 384.595 98.0259 379.09 98.0259H372.483V101.621L371.882 251.137C369.379 262.822 358.868 271.711 346.355 271.711H52.7451C40.2319 271.711 29.7208 262.822 27.2182 251.137L26.7176 101.621V97.8261H19.9105C14.4046 97.8261 10 93.4316 10 87.9383C10 82.4451 14.4046 78.0506 19.9105 78.0506H26.7176V73.3564C26.7176 59.074 38.43 47.3884 52.7451 47.3884H62.9559V38H109.605V47.3884H124.821V46.5894C124.821 41.8952 128.625 38 133.43 38H346.755C360.97 38 372.483 49.4858 372.483 63.6683V75.5536H372.382V78.2503ZM14.7051 87.9383C14.7051 90.9347 17.1077 93.4316 20.2109 93.4316C23.2141 93.4316 25.7168 90.9347 25.7168 87.9383C25.7168 84.942 23.2141 82.4451 20.2109 82.4451C17.2078 82.4451 14.7051 84.8422 14.7051 87.9383ZM355.465 72.1578C355.465 76.5524 351.961 80.048 347.556 80.048H314.922C310.517 80.048 307.014 76.5524 307.014 72.1578V61.0715C307.014 56.6769 310.517 53.1812 314.922 53.1812H347.556C351.961 53.1812 355.465 56.6769 355.465 61.0715V72.1578ZM373.083 88.1381C373.083 91.1344 375.486 93.6313 378.589 93.6313C381.692 93.6313 384.195 91.1344 384.095 88.1381C384.095 85.1418 381.692 82.6448 378.589 82.6448C375.586 82.6448 373.083 85.0419 373.083 88.1381Z" fill="#F0F3F5"/>
<path id="Path" fill-rule="evenodd" clip-rule="evenodd" d="M275.28 362H84.9793C78.4725 362 73.267 356.707 73.267 350.314V129.887C73.267 123.395 78.5726 118.201 84.9793 118.201H275.28C281.787 118.201 286.993 123.495 286.993 129.887V350.314C287.093 356.707 281.787 362 275.28 362Z" stroke="#999999" stroke-width="4" stroke-linecap="round" stroke-linejoin="round"/>
<path id="Path_2" fill-rule="evenodd" clip-rule="evenodd" d="M87.2817 133.281H272.878V318.452H87.2817V133.281Z" stroke="#999999" stroke-width="4" stroke-linecap="round" stroke-linejoin="round"/>
<path id="Oval" fill-rule="evenodd" clip-rule="evenodd" d="M180.079 236.056C186.437 236.056 191.591 230.913 191.591 224.57C191.591 218.226 186.437 213.084 180.079 213.084C173.721 213.084 168.567 218.226 168.567 224.57C168.567 230.913 173.721 236.056 180.079 236.056Z" stroke="#999999" stroke-width="4" stroke-linecap="round" stroke-linejoin="round"/>
<path id="Path_3" fill-rule="evenodd" clip-rule="evenodd" d="M239.842 290.589C234.237 296.083 225.027 295.483 220.122 289.391L193.594 255.932C190.691 252.337 191.091 247.043 194.394 243.847C197.698 240.551 203.004 240.351 206.607 243.448L239.142 271.014C245.148 276.007 245.448 285.096 239.842 290.589V290.589Z" stroke="#999999" stroke-width="4" stroke-linecap="round" stroke-linejoin="round"/>
<path id="Path_4" d="M237.039 269.113C246.549 257.028 252.356 241.847 252.456 225.267C252.856 185.416 220.822 152.657 180.78 152.257C140.838 151.858 108.003 183.818 107.603 223.769C107.202 263.62 139.236 296.379 179.278 296.779C193.293 296.879 206.507 293.083 217.619 286.292" stroke="#999999" stroke-width="4" stroke-linecap="round" stroke-linejoin="round"/>
<g id="Group">
<g id="Group_2">
<path id="Path_5" d="M333.078 301.721L174.211 304.717C168.605 304.817 164 299.623 164 293.331V75.9992C164 69.707 168.605 64.7132 174.211 65.0128L333.078 72.7033C338.284 73.0029 342.488 78.0967 342.488 84.1891V290.734C342.488 296.627 338.284 301.621 333.078 301.721Z" fill="#FFBE5C"/>
<path id="Path_6" d="M330.276 261.271L177.215 261.57C175.813 261.57 174.612 260.272 174.612 258.674V79.5949C174.612 77.9969 175.813 76.7983 177.215 76.7983L330.276 83.7897C331.577 83.8896 332.679 85.188 332.679 86.6861V258.574C332.679 260.072 331.577 261.271 330.276 261.271Z" fill="#FFD493"/>
<path id="Shape_2" fill-rule="evenodd" clip-rule="evenodd" d="M301.345 99.9683C303.547 100.068 305.349 102.265 305.349 104.862C305.349 107.459 303.547 109.556 301.345 109.357C299.042 109.257 297.24 107.06 297.24 104.463C297.24 101.866 299.142 99.8684 301.345 99.9683ZM314.959 100.667C317.162 100.667 318.964 102.865 318.964 105.461C318.964 108.058 317.162 110.056 314.959 109.956C312.757 109.956 310.955 107.759 310.955 105.162C310.955 102.565 312.757 100.567 314.959 100.667Z" fill="#DD7E10" fill-opacity="0.85"/>
<path id="Shape_3" fill-rule="evenodd" clip-rule="evenodd" d="M273.916 98.9694C276.219 99.0692 278.021 101.267 278.021 103.863C278.021 106.46 276.219 108.458 273.916 108.458C271.614 108.358 269.812 106.16 269.812 103.564C269.812 100.967 271.614 98.8695 273.916 98.9694ZM287.631 99.4688C289.933 99.5687 291.735 101.766 291.735 104.363C291.735 106.96 289.933 109.057 287.631 108.957C285.329 108.857 283.527 106.66 283.527 104.063C283.527 101.366 285.329 99.3689 287.631 99.4688Z" fill="white"/>
<path id="Path_7" d="M318.964 148.31C318.964 145.713 317.162 143.616 314.959 143.516C312.757 143.416 310.955 145.513 310.955 148.11C310.955 150.707 312.757 152.804 314.959 152.904C317.162 152.904 318.964 150.907 318.964 148.31Z" fill="#DD7E10" fill-opacity="0.85"/>
<path id="Shape_4" fill-rule="evenodd" clip-rule="evenodd" d="M273.916 142.218C276.219 142.317 278.02 144.515 278.02 147.111C278.02 149.808 276.219 151.806 273.916 151.706C271.614 151.606 269.812 149.409 269.812 146.812C269.812 144.215 271.614 142.118 273.916 142.218ZM291.735 147.511C291.735 144.914 289.933 142.717 287.631 142.717C285.328 142.617 283.526 144.715 283.526 147.311C283.526 149.908 285.328 152.105 287.631 152.105C289.933 152.205 291.735 150.108 291.735 147.511ZM305.35 147.909C305.35 145.312 303.548 143.115 301.345 143.115C299.143 143.015 297.241 145.112 297.241 147.709C297.241 150.306 299.043 152.503 301.345 152.503C303.548 152.603 305.35 150.506 305.35 147.909Z" fill="white"/>
<path id="Shape_5" fill-rule="evenodd" clip-rule="evenodd" d="M287.631 185.964C289.933 185.964 291.735 188.161 291.735 190.758C291.735 193.354 289.933 195.452 287.631 195.452C285.329 195.452 283.527 193.254 283.527 190.658C283.527 187.961 285.329 185.964 287.631 185.964ZM305.35 190.958C305.35 188.361 303.548 186.263 301.346 186.163C299.143 186.163 297.241 188.161 297.241 190.758C297.241 193.355 299.043 195.452 301.346 195.552C303.548 195.652 305.35 193.554 305.35 190.958ZM318.964 191.156C318.964 188.559 317.162 186.461 314.959 186.361C312.757 186.361 310.955 188.359 310.955 190.956C310.955 193.553 312.757 195.65 314.959 195.75C317.162 195.85 318.964 193.752 318.964 191.156Z" fill="#DD7E10" fill-opacity="0.85"/>
<path id="Shape_6" fill-rule="evenodd" clip-rule="evenodd" d="M278.02 190.458C278.02 187.861 276.219 185.664 273.916 185.664C271.614 185.664 269.812 187.661 269.812 190.358C269.812 193.055 271.614 195.152 273.916 195.152C276.219 195.152 278.02 193.055 278.02 190.458ZM318.963 234.004C318.963 231.408 317.161 229.31 314.959 229.31C312.757 229.31 310.955 231.408 310.955 234.004C310.955 236.601 312.757 238.699 314.959 238.699C317.161 238.699 318.963 236.601 318.963 234.004ZM301.345 229.31C303.548 229.31 305.35 231.408 305.35 234.004C305.35 236.601 303.548 238.699 301.345 238.699C299.043 238.699 297.241 236.601 297.241 234.004C297.241 231.408 299.143 229.31 301.345 229.31ZM291.735 233.906C291.735 231.309 289.933 229.212 287.631 229.212C285.328 229.212 283.526 231.309 283.526 233.906C283.526 236.503 285.328 238.6 287.631 238.6C289.933 238.6 291.735 236.503 291.735 233.906ZM273.916 229.009C276.219 229.109 278.02 231.206 278.02 233.803C278.02 236.4 276.219 238.497 273.916 238.497C271.614 238.497 269.812 236.3 269.812 233.703C269.812 231.106 271.614 229.009 273.916 229.009Z" fill="white"/>
<path id="Shape_7" fill-rule="evenodd" clip-rule="evenodd" d="M192.129 95.5751C194.532 95.675 196.434 97.8722 196.434 100.569C196.434 103.266 194.432 105.363 192.129 105.263C189.727 105.163 187.825 102.966 187.825 100.269C187.825 97.5726 189.727 95.4752 192.129 95.5751ZM192.129 139.821C194.532 139.92 196.434 142.118 196.434 144.814C196.434 147.511 194.432 149.608 192.129 149.509C189.727 149.409 187.825 147.211 187.825 144.515C187.825 141.818 189.727 139.721 192.129 139.821Z" fill="#DD7E10" fill-opacity="0.85"/>
<path id="Path_8" d="M196.434 189.06C196.434 186.363 194.532 184.166 192.129 184.166C189.727 184.166 187.825 186.263 187.825 188.96C187.825 191.657 189.727 193.854 192.129 193.854C194.432 193.854 196.434 191.756 196.434 189.06Z" fill="#DD7E10" fill-opacity="0.85"/>
<path id="Path_9" d="M196.434 233.403C196.434 230.706 194.532 228.509 192.129 228.509C189.727 228.509 187.825 230.607 187.825 233.303C187.825 236 189.727 238.197 192.129 238.197C194.432 238.197 196.434 236 196.434 233.403Z" fill="#DD7E10" fill-opacity="0.85"/>
</g>
</g>
</g>
</g>
</svg>

<svg xmlns="http://www.w3.org/2000/svg" width="400" height="400" fill="none" viewBox="0 0 400 400"><path fill="#F0F3F5" fill-rule="evenodd" d="M372.382 78.25h6.607c5.506 0 9.911 4.395 10.011 9.888 0 5.493-4.405 9.888-9.91 9.888h-6.607v3.595l-.601 149.516c-2.503 11.685-13.014 20.574-25.527 20.574H52.745c-12.513 0-23.024-8.889-25.527-20.574l-.5-149.516v-3.795H19.91c-5.505 0-9.91-4.394-9.91-9.888s4.405-9.887 9.91-9.887h6.808v-4.695c0-14.282 11.712-25.968 26.027-25.968h10.21V38h46.65v9.388h15.216v-.799A8.6 8.6 0 0 1 133.43 38h213.325c14.215 0 25.728 11.486 25.728 25.668v11.886h-.101zM14.705 87.938a5.484 5.484 0 0 0 5.506 5.494c3.003 0 5.506-2.497 5.506-5.494s-2.503-5.493-5.506-5.493-5.506 2.397-5.506 5.493m340.76-15.78c0 4.394-3.504 7.89-7.909 7.89h-32.634c-4.405 0-7.908-3.496-7.908-7.89V61.072c0-4.395 3.503-7.89 7.908-7.89h32.634c4.405 0 7.909 3.495 7.909 7.89zm17.618 15.98a5.484 5.484 0 0 0 5.506 5.493c3.103 0 5.606-2.497 5.506-5.493a5.484 5.484 0 0 0-5.506-5.493c-3.003 0-5.506 2.397-5.506 5.493" clip-rule="evenodd"/><path stroke="#999" stroke-linecap="round" stroke-linejoin="round" stroke-width="4" d="M275.28 362H84.98c-6.508 0-11.713-5.293-11.713-11.686V129.887c0-6.492 5.306-11.686 11.712-11.686H275.28c6.507 0 11.713 5.294 11.713 11.686v220.427c.1 6.393-5.206 11.686-11.713 11.686" clip-rule="evenodd"/><path stroke="#999" stroke-linecap="round" stroke-linejoin="round" stroke-width="4" d="M87.282 133.281h185.596v185.171H87.282z" clip-rule="evenodd"/><path stroke="#999" stroke-linecap="round" stroke-linejoin="round" stroke-width="4" d="M180.079 236.056c6.358 0 11.512-5.143 11.512-11.486s-5.154-11.486-11.512-11.486-11.512 5.142-11.512 11.486c0 6.343 5.154 11.486 11.512 11.486m59.763 54.533c-5.605 5.494-14.815 4.894-19.72-1.198l-26.528-33.459c-2.903-3.595-2.503-8.889.8-12.085 3.304-3.296 8.61-3.496 12.213-.399l32.535 27.566c6.006 4.993 6.306 14.082.7 19.575" clip-rule="evenodd"/><path stroke="#999" stroke-linecap="round" stroke-linejoin="round" stroke-width="4" d="M237.039 269.113c9.51-12.085 15.317-27.266 15.417-43.846.4-39.851-31.634-72.61-71.676-73.01-39.942-.399-72.777 31.561-73.177 71.512-.401 39.851 31.633 72.61 71.675 73.01 14.015.1 27.229-3.696 38.341-10.487"/><path fill="#FFBE5C" d="m333.078 301.721-158.867 2.996c-5.606.1-10.211-5.094-10.211-11.386V75.999c0-6.292 4.605-11.286 10.211-10.986l158.867 7.69c5.206.3 9.41 5.394 9.41 11.486v206.545c0 5.893-4.204 10.887-9.41 10.987"/><path fill="#FFD493" d="m330.276 261.271-153.061.299c-1.402 0-2.603-1.298-2.603-2.896V79.594c0-1.597 1.201-2.796 2.603-2.796l153.061 6.992c1.301.1 2.403 1.398 2.403 2.896v171.888c0 1.498-1.102 2.697-2.403 2.697"/><path fill="#DD7E10" fill-opacity=".85" fill-rule="evenodd" d="M301.345 99.968c2.202.1 4.004 2.297 4.004 4.894s-1.802 4.694-4.004 4.495c-2.303-.1-4.105-2.297-4.105-4.894s1.902-4.595 4.105-4.495m13.614.699c2.203 0 4.005 2.198 4.005 4.794 0 2.597-1.802 4.595-4.005 4.495-2.202 0-4.004-2.197-4.004-4.794s1.802-4.595 4.004-4.495" clip-rule="evenodd"/><path fill="#fff" fill-rule="evenodd" d="M273.916 98.97c2.303.1 4.105 2.297 4.105 4.893 0 2.597-1.802 4.595-4.105 4.595-2.302-.1-4.104-2.298-4.104-4.894s1.802-4.694 4.104-4.595m13.715.499c2.302.1 4.104 2.297 4.104 4.894s-1.802 4.694-4.104 4.594-4.104-2.297-4.104-4.894c0-2.697 1.802-4.694 4.104-4.594" clip-rule="evenodd"/><path fill="#DD7E10" fill-opacity=".85" d="M318.964 148.31c0-2.597-1.802-4.694-4.005-4.794s-4.004 1.997-4.004 4.594 1.802 4.694 4.004 4.794c2.203 0 4.005-1.997 4.005-4.594"/><path fill="#fff" fill-rule="evenodd" d="M273.916 142.218c2.303.099 4.104 2.297 4.104 4.893 0 2.697-1.801 4.695-4.104 4.595s-4.104-2.297-4.104-4.894 1.802-4.694 4.104-4.594m17.819 5.293c0-2.597-1.802-4.794-4.104-4.794-2.303-.1-4.105 1.998-4.105 4.594s1.802 4.794 4.105 4.794c2.302.1 4.104-1.997 4.104-4.594m13.615.398c0-2.597-1.802-4.794-4.005-4.794-2.202-.1-4.104 1.997-4.104 4.594s1.802 4.794 4.104 4.794c2.203.1 4.005-1.997 4.005-4.594" clip-rule="evenodd"/><path fill="#DD7E10" fill-opacity=".85" fill-rule="evenodd" d="M287.631 185.964c2.302 0 4.104 2.197 4.104 4.794s-1.802 4.694-4.104 4.694-4.104-2.198-4.104-4.794c0-2.697 1.802-4.694 4.104-4.694m17.719 4.994c0-2.597-1.802-4.695-4.004-4.795-2.203 0-4.105 1.998-4.105 4.595s1.802 4.694 4.105 4.794c2.202.1 4.004-1.998 4.004-4.594m13.614.198c0-2.597-1.802-4.695-4.005-4.795-2.202 0-4.004 1.998-4.004 4.595s1.802 4.694 4.004 4.794c2.203.1 4.005-1.998 4.005-4.594" clip-rule="evenodd"/><path fill="#fff" fill-rule="evenodd" d="M278.02 190.458c0-2.597-1.801-4.794-4.104-4.794s-4.104 1.997-4.104 4.694 1.802 4.794 4.104 4.794 4.104-2.097 4.104-4.694m40.943 43.546c0-2.596-1.802-4.694-4.004-4.694s-4.004 2.098-4.004 4.694 1.802 4.695 4.004 4.695 4.004-2.098 4.004-4.695m-17.618-4.694c2.203 0 4.005 2.098 4.005 4.694s-1.802 4.695-4.005 4.695c-2.302 0-4.104-2.098-4.104-4.695 0-2.596 1.902-4.694 4.104-4.694m-9.61 4.596c0-2.597-1.802-4.694-4.104-4.694s-4.105 2.097-4.105 4.694 1.802 4.694 4.105 4.694c2.302 0 4.104-2.097 4.104-4.694m-17.819-4.897c2.303.1 4.104 2.197 4.104 4.794s-1.801 4.694-4.104 4.694-4.104-2.197-4.104-4.794 1.802-4.694 4.104-4.694" clip-rule="evenodd"/><path fill="#DD7E10" fill-opacity=".85" fill-rule="evenodd" d="M192.129 95.575c2.403.1 4.305 2.297 4.305 4.994s-2.002 4.794-4.305 4.694c-2.402-.1-4.304-2.297-4.304-4.994s1.902-4.794 4.304-4.694m0 44.246c2.403.099 4.305 2.297 4.305 4.993s-2.002 4.794-4.305 4.695c-2.402-.1-4.304-2.298-4.304-4.994 0-2.697 1.902-4.794 4.304-4.694" clip-rule="evenodd"/><path fill="#DD7E10" fill-opacity=".85" d="M196.434 189.06c0-2.697-1.902-4.894-4.305-4.894s-4.304 2.097-4.304 4.794 1.902 4.894 4.304 4.894c2.303 0 4.305-2.098 4.305-4.794m0 44.343c0-2.697-1.902-4.894-4.305-4.894s-4.304 2.098-4.304 4.794c0 2.697 1.902 4.894 4.304 4.894 2.303 0 4.305-2.197 4.305-4.794"/></svg>
